src/assets/frontend.svg

<svg xmlns="http://www.w3.org/2000/svg" width="61" height="60" fill="none" viewBox="0 0 61 60"><path fill="#2ECC82" d="M15.3409 60C15.472 57.0468 17.4894 55.1563 20.5111 55.077C22.8444 55.0154 25.1777 55.0389 27.511 55.0184C27.5975 55.0184 27.6809 54.9391 27.8568 54.854V50.0572H26.2148C19.4105 50.0572 12.6063 50.0572 5.80199 50.0572C1.95782 50.0572 0.0119199 48.1609 0.00893992 44.3975C-0.00297997 31.481 -0.00297997 18.5645 0.00893992 5.64802C0.00893992 1.88757 1.95486 0 5.8169 0C22.2584 0 38.6979 0 55.1354 0C59.0869 0 60.997 1.87288 61 5.74489C61 18.6105 61 31.4771 61 44.3446C61 48.1961 59.066 50.0572 55.1116 50.0602C48.357 50.0602 41.6024 50.0602 34.8478 50.0602H33.1552V55.0506C35.563 55.0506 37.9231 55.0242 40.3071 55.0506C42.9891 55.0888 44.9618 56.4979 45.5786 58.7641C45.6573 59.1682 45.7071 59.5773 45.7276 59.9883L15.3409 60ZM29.9427 36.1955C31.6175 28.7656 33.2892 21.3621 35.0087 13.7737C34.2047 13.8171 33.3989 13.8171 32.5949 13.7737C31.4029 13.6386 30.9261 14.0907 30.7593 15.2414C30.5477 16.7356 30.1096 18.1976 29.7788 19.6742C28.5421 25.149 27.3114 30.6209 26.0539 36.1955H29.9427ZM20.818 30.8616L14.3843 24.7879L20.529 19.2103L17.9871 16.4538C15.5792 18.7847 13.1446 21.0744 10.8024 23.4493C9.9084 24.3622 9.85775 25.6157 10.7398 26.5228C13.097 28.9447 15.5793 31.252 18.0318 33.624L20.818 30.8616ZM43.0844 33.7355C45.4683 31.3665 47.8017 29.1003 50.0843 26.7958C50.9783 25.8887 51.2585 24.6353 50.4062 23.737C48.0222 21.2153 45.4594 18.8581 43.0933 16.5566L40.1849 19.2456C42.25 21.1948 44.3091 23.1352 46.5173 25.2224L40.2862 31.0524L43.0844 33.7355Z"/></svg>

<svg xmlns="http://www.w3.org/2000/svg" width="61" height="60" fill="none"><path fill="#2ECC82" d="M15.34 60c.132-2.953 2.15-4.844 5.171-4.923 2.333-.062 4.667-.038 7-.059.087 0 .17-.079.346-.164v-4.797H5.802c-3.844 0-5.79-1.896-5.793-5.66-.012-12.916-.012-25.832 0-38.749C.009 1.888 1.955 0 5.817 0h49.318C59.087 0 60.997 1.873 61 5.745v38.6c0 3.851-1.934 5.712-5.888 5.715H33.155v4.99c2.408 0 4.768-.026 7.152 0 2.682.039 4.655 1.448 5.272 3.714.078.404.128.813.149 1.224L15.34 60Zm14.603-23.804c1.674-7.43 3.346-14.834 5.066-22.422-.804.043-1.61.043-2.414 0-1.192-.135-1.669.317-1.836 1.467-.211 1.495-.65 2.957-.98 4.433-1.237 5.475-2.468 10.947-3.725 16.522h3.889Zm-9.125-5.334-6.434-6.074 6.145-5.578-2.542-2.756c-2.408 2.33-4.842 4.62-7.185 6.995-.894.913-.944 2.167-.062 3.074 2.357 2.422 4.84 4.729 7.292 7.101l2.786-2.762Zm22.266 2.874c2.384-2.37 4.718-4.636 7-6.94.894-.907 1.174-2.16.322-3.059-2.384-2.522-4.947-4.879-7.313-7.18l-2.908 2.689c2.065 1.949 4.124 3.89 6.332 5.976l-6.23 5.83 2.797 2.684Z"/></svg>
